X: 22665
T: Lakes Of Killarney, The
R: jig
M: 6/8
K: Edorian
|:BEF G2 A|Bec dBA|G2E Fed|cec dBA|
BEF G2 A|Bec dBA|G2E BAG|AGF EED:|
|:EGB efg|fed edB|bag agf|efg edB|
g2d edB|GBd AFD|G2B dBG|AGF EED:|

